people/calendar-check.svg

<svg xmlns="http://www.w3.org/2000/svg" viewBox="0 0 16 16"><defs><style>.cls-1{fill:#010101}</style></defs><title>calendar-check</title><path class="cls-1" d="M14.044 2.063h-1.629V0h-1.377v2.063H4.843V0H3.467v2.063h-1.63A1.123 1.123 0 0 0 .713 3.186v10.82a1.123 1.123 0 0 0 1.124 1.123h12.207a1.123 1.123 0 0 0 1.124-1.123V3.186a1.123 1.123 0 0 0-1.124-1.123zm-.253 11.691H2.09V3.439h11.7zm-2.043-6.678l-.941-.99-3.354 3.527L5.806 7.88l-.941.99 2.589 2.723z" id="Layer_1" data-name="Layer 1"/></svg>

<svg xmlns="http://www.w3.org/2000/svg" viewBox="0 0 16 16"><defs><style>.cls-1{fill:#010101;}</style></defs><title>calendar-check</title><g id="Layer_1" data-name="Layer 1"><path class="cls-1" d="M14.044,2.063H12.415V0H11.038V2.063H4.843V0H3.467V2.063H1.837A1.123,1.123,0,0,0,.713,3.186v10.82a1.123,1.123,0,0,0,1.124,1.123H14.044a1.123,1.123,0,0,0,1.124-1.123V3.186A1.123,1.123,0,0,0,14.044,2.063Zm-.253,11.691H2.09V3.439h11.7ZM11.748,7.076l-.941-.99L7.453,9.613,5.806,7.88l-.941.99,2.589,2.723Z"/></g></svg>
